; generated by PrusaSlicer 2.4.0-alpha1+linux-x64-GTK3 on 2022-04-06 at 21:26:48 UTC

; 

; external perimeters extrusion width = 0.45mm
; perimeters extrusion width = 0.45mm
; infill extrusion width = 0.45mm
; solid infill extrusion width = 0.45mm
; top infill extrusion width = 0.40mm
; first layer extrusion width = 0.42mm

M73 P0 R33
M201 X9000 Y9000 Z1000 E10000 ; sets maximum accelerations, mm/sec^2
M203 X500 Y500 Z20 E120 ; sets maximum feedrates, mm/sec
M204 P2000 R1500 T2000 ; sets acceleration (P, T) and retract acceleration (R), mm/sec^2
M205 X7.00 Y7.00 Z0.50 E2.50 ; sets the jerk limits, mm/sec
M205 S0 T0 ; sets the minimum extruding and travel feed rate, mm/sec
M107
;TYPE:Custom
M73 P0 S0; Set print progress to 0
M106 P0 S100; Turn on the part cooling fan during startup
M140 S60  ; set bed temp
M104 S245 ; set extruder temp
M190 S60 ; wait for bed temp
M109 S245 ; wait for extruder temp
G28 ; home all without mesh bed level
G29 ; mesh bed leveling
M107 P0; Turn off the part cooling fan
G0 Z0.35 X4.0 Y-2.0 F4200.0 ; go outside print area, hang a bit in the air to extrude and purge.
G92 E0.0 ; Set Extruder start
G1 X60.0 E9.0 F1000.0 ; intro line
G1 X100.0 E12.5 F1000.0 ; intro line
G1 X140.0 E9.0 ; outro line
G92 E0.0 ; reset extruder
G21 ; set units to millimeters
G90 ; use absolute coordinates
M83 ; use relative distances for extrusion
M900 K45 ; Filament gcode
M900 K0.06; Varnerized K-Factor gcode
;LAYER_CHANGE
;Z:0.25
;HEIGHT:0.25
;BEFORE_LAYER_CHANGE
G92 E0.0
;0.25


G1 E-0.25000 F2400.000
G1 Z0.250 F10800.000
;AFTER_LAYER_CHANGE
;0.25
G1 X93.510 Y75.498
G1 E0.25000 F2400.000
M204 S1000
;TYPE:Skirt/Brim
;WIDTH:0.42
G1 F1200.000
G1 X94.770 Y74.166 E0.06982
G1 X96.162 Y72.972 E0.06981
G1 X97.514 Y72.030 E0.06274
G1 X98.925 Y71.229 E0.06180
G1 X100.602 Y70.486 E0.06982
G1 X102.346 Y69.923 E0.06981
G1 X104.140 Y69.545 E0.06981
G1 X105.507 Y69.385 E0.05237
G1 X106.850 Y69.334 E0.05119
G1 X143.181 Y69.334 E1.38340
G1 X144.950 Y69.427 E0.06746
G1 X146.312 Y69.622 E0.05237
G1 X147.654 Y69.923 E0.05237
G1 X148.968 Y70.328 E0.05237
G1 X150.303 Y70.861 E0.05473
G1 X151.535 Y71.471 E0.05237
G1 X153.046 Y72.397 E0.06746
G1 X154.149 Y73.218 E0.05237
G1 X155.230 Y74.166 E0.05472
G1 X156.188 Y75.152 E0.05237
G1 X157.065 Y76.211 E0.05237
G1 X157.970 Y77.514 E0.06038
G1 X158.743 Y78.870 E0.05944
G1 X159.321 Y80.118 E0.05237
G1 X159.799 Y81.408 E0.05237
G1 X160.189 Y82.791 E0.05473
G1 X160.520 Y84.594 E0.06982
G1 X160.666 Y86.819 E0.08489
G1 X160.644 Y124.036 E1.41713
G1 X160.367 Y126.373 E0.08960
G1 X159.799 Y128.592 E0.08724
G1 X159.345 Y129.825 E0.05001
G1 X158.771 Y131.075 E0.05237
G1 X157.603 Y133.046 E0.08725
G1 X156.490 Y134.502 E0.06981
G1 X155.185 Y135.877 E0.07217
G1 X153.520 Y137.266 E0.08254
G1 X151.935 Y138.304 E0.07217
G1 X150.246 Y139.164 E0.07217
G1 X148.155 Y139.936 E0.08489
G1 X146.373 Y140.367 E0.06981
G1 X144.493 Y140.615 E0.07217
G1 X143.150 Y140.666 E0.05119
G1 X105.902 Y140.641 E1.41830
G1 X103.627 Y140.367 E0.08725
G1 X101.208 Y139.732 E0.09525
G1 X98.925 Y138.771 E0.09431
G1 X96.954 Y137.603 E0.08724
G1 X95.451 Y136.449 E0.07217
G1 X94.123 Y135.185 E0.06981
G1 X92.697 Y133.471 E0.08489
G1 X91.696 Y131.935 E0.06981
G1 X90.836 Y130.246 E0.07217
G1 X90.182 Y128.533 E0.06982
G1 X89.633 Y126.373 E0.08489
G1 X89.385 Y124.493 E0.07217
G1 X89.334 Y123.150 E0.05119
G1 X89.359 Y85.902 E1.41830
G1 X89.633 Y83.627 E0.08725
G1 X90.268 Y81.208 E0.09524
M73 P1 R33
G1 X91.229 Y78.925 E0.09430
G1 X92.397 Y76.954 E0.08724
G1 X93.474 Y75.545 E0.06753
M204 S1500
G1 E-0.12500 F2400.000
;WIPE_START
G1 F8640.000
G1 X93.782 Y75.217 E-0.11875
;WIPE_END
G1 E-0.00625 F2400.000
G1 X97.725 Y79.176 F10800.000
G1 E0.25000 F2400.000
M204 S1000
;TYPE:Perimeter
G1 F1200.000
G1 X97.987 Y78.870 E0.01535
G1 X98.417 Y78.417 E0.02377
G1 X98.870 Y77.987 E0.02378
G1 X99.344 Y77.581 E0.02378
G1 X99.840 Y77.201 E0.02378
G1 X100.357 Y76.845 E0.02392
G1 X101.156 Y76.370 E0.03537
G1 X101.715 Y76.085 E0.02392
G1 X102.286 Y75.831 E0.02378
G1 X102.869 Y75.608 E0.02378
G1 X103.466 Y75.413 E0.02392
G1 X104.367 Y75.185 E0.03537
G1 X104.984 Y75.070 E0.02392
G1 X105.603 Y74.989 E0.02378
G1 X106.226 Y74.940 E0.02378
G1 X106.846 Y74.923 E0.02361
G1 X107.782 Y74.960 E0.03567
G1 X108.407 Y75.025 E0.02392
G1 X109.023 Y75.123 E0.02378
G1 X109.634 Y75.253 E0.02378
G1 X110.237 Y75.415 E0.02378
G1 X110.831 Y75.608 E0.02377
G1 X111.418 Y75.833 E0.02392
G1 X112.261 Y76.222 E0.03537
G1 X112.813 Y76.521 E0.02392
G1 X113.346 Y76.848 E0.02377
G1 X113.860 Y77.201 E0.02378
G1 X114.356 Y77.581 E0.02378
G1 X114.830 Y77.987 E0.02377
G1 X115.283 Y78.417 E0.02378
G1 X115.713 Y78.870 E0.02378
G1 X116.119 Y79.344 E0.02378
G1 X116.499 Y79.840 E0.02378
G1 X116.855 Y80.357 E0.02392
G1 X117.330 Y81.156 E0.03537
G1 X117.615 Y81.715 E0.02392
G1 X117.869 Y82.286 E0.02378
G1 X118.092 Y82.869 E0.02378
G1 X118.287 Y83.466 E0.02392
G1 X118.515 Y84.367 E0.03537
G1 X118.630 Y84.984 E0.02392
G1 X118.711 Y85.603 E0.02378
G1 X118.760 Y86.226 E0.02378
G1 X118.777 Y86.850 E0.02378
G1 X118.760 Y87.474 E0.02378
G1 X118.711 Y88.097 E0.02378
G1 X118.630 Y88.716 E0.02377
G1 X118.517 Y89.326 E0.02362
G1 X118.287 Y90.234 E0.03567
G1 X118.092 Y90.831 E0.02392
G1 X117.867 Y91.418 E0.02392
G1 X117.478 Y92.261 E0.03537
G1 X117.179 Y92.813 E0.02392
G1 X116.852 Y93.346 E0.02377
G1 X116.499 Y93.860 E0.02378
G1 X116.119 Y94.356 E0.02378
G1 X115.713 Y94.830 E0.02378
G1 X115.283 Y95.283 E0.02377
G1 X114.830 Y95.713 E0.02378
G1 X114.356 Y96.119 E0.02378
G1 X113.860 Y96.499 E0.02378
G1 X113.343 Y96.855 E0.02392
G1 X112.544 Y97.330 E0.03537
G1 X111.985 Y97.615 E0.02392
G1 X111.414 Y97.869 E0.02377
G1 X110.831 Y98.092 E0.02378
G1 X110.237 Y98.285 E0.02377
G1 X109.634 Y98.447 E0.02377
G1 X109.028 Y98.576 E0.02362
G1 X108.101 Y98.711 E0.03567
G1 X107.474 Y98.760 E0.02392
G1 X106.846 Y98.777 E0.02392
G1 X105.918 Y98.740 E0.03537
G1 X105.293 Y98.675 E0.02392
G1 X104.677 Y98.577 E0.02378
G1 X104.066 Y98.447 E0.02378
G1 X103.463 Y98.285 E0.02378
G1 X102.869 Y98.092 E0.02377
G1 X102.286 Y97.869 E0.02378
G1 X101.716 Y97.615 E0.02377
G1 X101.156 Y97.330 E0.02392
G1 X100.357 Y96.855 E0.03537
G1 X99.840 Y96.499 E0.02392
G1 X99.344 Y96.119 E0.02378
G1 X98.870 Y95.713 E0.02378
G1 X98.417 Y95.283 E0.02377
G1 X97.987 Y94.830 E0.02378
G1 X97.581 Y94.356 E0.02378
G1 X97.201 Y93.860 E0.02378
G1 X96.845 Y93.343 E0.02392
G1 X96.370 Y92.544 E0.03537
G1 X96.085 Y91.985 E0.02392
G1 X95.831 Y91.414 E0.02377
G1 X95.608 Y90.831 E0.02378
G1 X95.415 Y90.237 E0.02377
G1 X95.253 Y89.634 E0.02377
G1 X95.124 Y89.028 E0.02362
G1 X94.989 Y88.101 E0.03567
G1 X94.940 Y87.474 E0.02392
G1 X94.923 Y86.846 E0.02392
G1 X94.960 Y85.918 E0.03537
G1 X95.025 Y85.293 E0.02392
G1 X95.123 Y84.677 E0.02378
G1 X95.253 Y84.066 E0.02378
G1 X95.415 Y83.463 E0.02378
G1 X95.608 Y82.869 E0.02377
G1 X95.833 Y82.282 E0.02392
G1 X96.222 Y81.439 E0.03537
G1 X96.521 Y80.887 E0.02392
G1 X96.848 Y80.354 E0.02378
G1 X97.201 Y79.840 E0.02378
G1 X97.686 Y79.222 E0.02991
M204 S1500
G1 X97.965 Y79.460 F10800.000
M204 S1000
;TYPE:External perimeter
G1 F1200.000
G1 X98.259 Y79.115 E0.01727
G1 X98.676 Y78.676 E0.02304
G1 X99.115 Y78.259 E0.02305
G1 X99.575 Y77.866 E0.02304
G1 X100.055 Y77.498 E0.02305
G1 X100.555 Y77.154 E0.02310
G1 X101.333 Y76.691 E0.03446
G1 X101.873 Y76.416 E0.02310
G1 X102.426 Y76.170 E0.02304
G1 X102.991 Y75.953 E0.02305
G1 X103.568 Y75.766 E0.02310
G1 X104.445 Y75.543 E0.03446
G1 X105.042 Y75.432 E0.02310
G1 X105.642 Y75.353 E0.02305
G1 X106.245 Y75.306 E0.02305
G1 X106.843 Y75.290 E0.02280
G1 X107.756 Y75.325 E0.03476
G1 X108.359 Y75.389 E0.02310
G1 X108.957 Y75.483 E0.02305
G1 X109.549 Y75.609 E0.02305
G1 X110.133 Y75.766 E0.02304
G1 X110.709 Y75.953 E0.02304
G1 X111.275 Y76.170 E0.02310
G1 X112.097 Y76.549 E0.03446
G1 X112.630 Y76.839 E0.02310
G1 X113.146 Y77.155 E0.02304
G1 X113.645 Y77.498 E0.02305
G1 X114.125 Y77.866 E0.02305
G1 X114.585 Y78.259 E0.02304
G1 X115.024 Y78.676 E0.02304
G1 X115.441 Y79.115 E0.02305
G1 X115.834 Y79.575 E0.02304
G1 X116.202 Y80.055 E0.02305
G1 X116.546 Y80.555 E0.02310
G1 X117.009 Y81.333 E0.03446
G1 X117.284 Y81.873 E0.02310
G1 X117.530 Y82.426 E0.02304
G1 X117.747 Y82.991 E0.02305
G1 X117.934 Y83.568 E0.02310
G1 X118.157 Y84.445 E0.03446
G1 X118.268 Y85.042 E0.02310
G1 X118.347 Y85.642 E0.02305
G1 X118.394 Y86.245 E0.02305
G1 X118.410 Y86.850 E0.02304
G1 X118.394 Y87.455 E0.02305
G1 X118.347 Y88.058 E0.02305
G1 X118.268 Y88.658 E0.02304
G1 X118.159 Y89.247 E0.02280
G1 X117.934 Y90.132 E0.03476
G1 X117.747 Y90.709 E0.02310
G1 X117.530 Y91.275 E0.02310
G1 X117.151 Y92.097 E0.03446
G1 X116.861 Y92.630 E0.02310
G1 X116.545 Y93.146 E0.02304
G1 X116.202 Y93.645 E0.02305
G1 X115.834 Y94.125 E0.02305
G1 X115.441 Y94.585 E0.02304
G1 X115.024 Y95.024 E0.02304
G1 X114.585 Y95.441 E0.02305
G1 X114.125 Y95.834 E0.02304
G1 X113.645 Y96.202 E0.02305
G1 X113.145 Y96.546 E0.02310
G1 X112.367 Y97.009 E0.03446
G1 X111.827 Y97.284 E0.02310
G1 X111.274 Y97.530 E0.02304
G1 X110.709 Y97.747 E0.02305
G1 X110.133 Y97.934 E0.02305
G1 X109.549 Y98.091 E0.02304
G1 X108.963 Y98.215 E0.02280
G1 X108.060 Y98.347 E0.03476
G1 X107.455 Y98.394 E0.02310
G1 X106.849 Y98.410 E0.02310
G1 X105.944 Y98.375 E0.03446
G1 X105.341 Y98.311 E0.02310
G1 X104.743 Y98.217 E0.02305
G1 X104.151 Y98.091 E0.02305
G1 X103.567 Y97.934 E0.02304
G1 X102.991 Y97.747 E0.02304
G1 X102.426 Y97.530 E0.02305
G1 X101.873 Y97.284 E0.02304
G1 X101.333 Y97.009 E0.02310
G1 X100.555 Y96.546 E0.03446
G1 X100.055 Y96.202 E0.02310
G1 X99.575 Y95.834 E0.02305
G1 X99.115 Y95.441 E0.02305
G1 X98.676 Y95.024 E0.02304
G1 X98.259 Y94.585 E0.02305
G1 X97.866 Y94.125 E0.02305
G1 X97.498 Y93.645 E0.02305
G1 X97.154 Y93.145 E0.02310
G1 X96.691 Y92.367 E0.03446
G1 X96.416 Y91.827 E0.02310
G1 X96.170 Y91.274 E0.02304
G1 X95.953 Y90.709 E0.02305
G1 X95.766 Y90.133 E0.02304
G1 X95.609 Y89.549 E0.02304
G1 X95.485 Y88.963 E0.02280
G1 X95.353 Y88.060 E0.03476
G1 X95.306 Y87.455 E0.02310
G1 X95.290 Y86.849 E0.02310
G1 X95.325 Y85.944 E0.03446
G1 X95.389 Y85.341 E0.02310
G1 X95.483 Y84.743 E0.02305
G1 X95.609 Y84.151 E0.02305
G1 X95.766 Y83.567 E0.02304
G1 X95.953 Y82.991 E0.02304
G1 X96.170 Y82.425 E0.02310
G1 X96.549 Y81.603 E0.03446
G1 X96.839 Y81.070 E0.02310
G1 X97.155 Y80.554 E0.02305
G1 X97.498 Y80.055 E0.02304
G1 X97.926 Y79.505 E0.02653
M204 S1500
G1 X97.822 Y79.086 F10800.000
G1 E-0.12500 F2400.000
;WIPE_START
G1 F8640.000
G1 X98.218 Y79.163 E-0.11875
;WIPE_END
G1 E-0.00625 F2400.000
G1 X95.741 Y77.736 F10800.000
G1 E0.25000 F2400.000
M204 S1000
;TYPE:Perimeter
G1 F1200.000
G1 X96.424 Y76.956 E0.03948
G1 X96.956 Y76.424 E0.02866
G1 X97.515 Y75.920 E0.02865
G1 X98.100 Y75.447 E0.02865
G1 X98.709 Y75.004 E0.02865
G1 X99.340 Y74.595 E0.02866
G1 X99.992 Y74.218 E0.02866
G1 X100.606 Y73.904 E0.02628
G1 X101.703 Y73.430 E0.04551
G1 X102.408 Y73.180 E0.02848
G1 X103.126 Y72.967 E0.02851
G1 X104.234 Y72.717 E0.04326
G1 X104.974 Y72.600 E0.02851
G1 X105.722 Y72.521 E0.02865
G1 X106.474 Y72.481 E0.02867
G1 X107.164 Y72.481 E0.02628
G1 X108.357 Y72.556 E0.04551
G1 X109.099 Y72.654 E0.02848
G1 X109.838 Y72.791 E0.02865
G1 X110.570 Y72.966 E0.02865
G1 X111.292 Y73.180 E0.02865
G1 X112.001 Y73.431 E0.02865
G1 X112.696 Y73.719 E0.02866
G1 X113.375 Y74.043 E0.02865
G1 X114.033 Y74.400 E0.02851
G1 X114.994 Y75.007 E0.04326
G1 X115.600 Y75.447 E0.02851
G1 X116.185 Y75.920 E0.02866
G1 X116.744 Y76.424 E0.02865
G1 X117.276 Y76.956 E0.02866
G1 X117.780 Y77.515 E0.02865
G1 X118.253 Y78.100 E0.02866
G1 X118.696 Y78.709 E0.02865
G1 X119.105 Y79.340 E0.02865
G1 X119.482 Y79.992 E0.02867
G1 X119.796 Y80.606 E0.02628
G1 X120.270 Y81.703 E0.04551
G1 X120.520 Y82.408 E0.02848
G1 X120.734 Y83.130 E0.02865
G1 X120.909 Y83.862 E0.02865
G1 X121.046 Y84.601 E0.02865
G1 X121.145 Y85.348 E0.02865
G1 X121.203 Y86.094 E0.02851
G1 X121.218 Y87.230 E0.04326
G1 X121.179 Y87.978 E0.02851
G1 X121.101 Y88.722 E0.02851
G1 X120.908 Y89.842 E0.04326
G1 X120.734 Y90.570 E0.02851
G1 X120.520 Y91.292 E0.02865
G1 X120.269 Y92.001 E0.02865
G1 X119.981 Y92.696 E0.02866
G1 X119.657 Y93.375 E0.02865
G1 X119.298 Y94.037 E0.02865
G1 X118.905 Y94.678 E0.02866
G1 X118.478 Y95.299 E0.02865
G1 X118.020 Y95.895 E0.02865
G1 X117.534 Y96.465 E0.02851
G1 X116.741 Y97.279 E0.04326
G1 X116.185 Y97.780 E0.02851
G1 X115.600 Y98.253 E0.02865
G1 X114.991 Y98.696 E0.02865
G1 X114.360 Y99.105 E0.02865
G1 X113.708 Y99.482 E0.02867
G1 X113.094 Y99.796 E0.02628
G1 X111.997 Y100.270 E0.04551
G1 X111.292 Y100.520 E0.02848
G1 X110.570 Y100.734 E0.02865
G1 X109.838 Y100.909 E0.02865
G1 X109.098 Y101.046 E0.02865
G1 X108.352 Y101.145 E0.02865
G1 X107.606 Y101.203 E0.02851
G1 X106.470 Y101.218 E0.04326
G1 X105.722 Y101.179 E0.02851
G1 X104.974 Y101.100 E0.02865
G1 X104.230 Y100.983 E0.02866
G1 X103.555 Y100.840 E0.02628
G1 X102.404 Y100.518 E0.04551
G1 X101.699 Y100.269 E0.02848
G1 X101.007 Y99.982 E0.02851
G1 X99.988 Y99.480 E0.04326
G1 X99.340 Y99.105 E0.02851
G1 X98.709 Y98.696 E0.02865
G1 X98.100 Y98.253 E0.02865
G1 X97.515 Y97.780 E0.02865
G1 X96.956 Y97.276 E0.02865
G1 X96.424 Y96.744 E0.02865
G1 X95.920 Y96.185 E0.02866
G1 X95.447 Y95.600 E0.02865
G1 X95.004 Y94.991 E0.02865
G1 X94.595 Y94.360 E0.02865
G1 X94.218 Y93.708 E0.02866
G1 X93.904 Y93.094 E0.02628
G1 X93.430 Y91.997 E0.04551
G1 X93.180 Y91.292 E0.02848
G1 X92.966 Y90.570 E0.02865
G1 X92.791 Y89.838 E0.02865
G1 X92.654 Y89.099 E0.02865
G1 X92.555 Y88.352 E0.02865
G1 X92.497 Y87.606 E0.02851
G1 X92.482 Y86.470 E0.04326
G1 X92.521 Y85.722 E0.02851
G1 X92.600 Y84.974 E0.02865
G1 X92.717 Y84.230 E0.02866
G1 X92.860 Y83.555 E0.02628
G1 X93.182 Y82.404 E0.04551
G1 X93.431 Y81.699 E0.02848
G1 X93.719 Y81.004 E0.02865
G1 X94.043 Y80.325 E0.02865
G1 X94.400 Y79.667 E0.02851
G1 X95.007 Y78.706 E0.04326
G1 X95.447 Y78.100 E0.02851
G1 X95.703 Y77.783 E0.01553
M204 S1500
G1 X95.419 Y77.552 F10800.000
M204 S1000
;TYPE:External perimeter
G1 F1200.000
G1 X95.642 Y77.277 E0.01349
G1 X96.158 Y76.704 E0.02938
G1 X96.704 Y76.158 E0.02939
G1 X97.277 Y75.642 E0.02938
G1 X97.877 Y75.156 E0.02938
G1 X98.501 Y74.702 E0.02938
G1 X99.148 Y74.282 E0.02939
G1 X99.817 Y73.896 E0.02939
G1 X100.450 Y73.573 E0.02708
G1 X101.569 Y73.089 E0.04643
G1 X102.295 Y72.832 E0.02932
G1 X103.034 Y72.613 E0.02933
G1 X104.165 Y72.357 E0.04417
G1 X104.926 Y72.236 E0.02933
G1 X105.693 Y72.156 E0.02938
G1 X106.464 Y72.115 E0.02939
G1 X107.175 Y72.114 E0.02708
G1 X108.392 Y72.191 E0.04643
G1 X109.156 Y72.292 E0.02932
G1 X109.915 Y72.432 E0.02938
G1 X110.665 Y72.612 E0.02938
G1 X111.405 Y72.832 E0.02938
G1 X112.132 Y73.089 E0.02938
G1 X112.845 Y73.384 E0.02939
G1 X113.542 Y73.717 E0.02939
G1 X114.219 Y74.084 E0.02933
G1 X115.200 Y74.703 E0.04418
G1 X115.823 Y75.156 E0.02933
G1 X116.423 Y75.642 E0.02939
G1 X116.996 Y76.158 E0.02938
G1 X117.542 Y76.704 E0.02939
G1 X118.058 Y77.277 E0.02938
G1 X118.544 Y77.877 E0.02939
G1 X118.998 Y78.501 E0.02938
G1 X119.418 Y79.148 E0.02938
G1 X119.804 Y79.817 E0.02939
G1 X120.127 Y80.450 E0.02708
G1 X120.611 Y81.569 E0.04643
G1 X120.868 Y82.295 E0.02932
G1 X121.088 Y83.035 E0.02938
G1 X121.268 Y83.785 E0.02938
G1 X121.408 Y84.544 E0.02938
G1 X121.509 Y85.309 E0.02938
G1 X121.570 Y86.077 E0.02933
G1 X121.585 Y87.237 E0.04418
G1 X121.544 Y88.007 E0.02933
G1 X121.464 Y88.773 E0.02933
G1 X121.267 Y89.916 E0.04417
G1 X121.088 Y90.665 E0.02933
G1 X120.868 Y91.405 E0.02939
G1 X120.611 Y92.132 E0.02938
G1 X120.316 Y92.845 E0.02939
G1 X119.983 Y93.542 E0.02938
G1 X119.615 Y94.220 E0.02938
G1 X119.212 Y94.878 E0.02939
G1 X118.775 Y95.514 E0.02938
G1 X118.305 Y96.126 E0.02938
G1 X117.805 Y96.712 E0.02933
G1 X116.995 Y97.543 E0.04418
G1 X116.423 Y98.058 E0.02933
G1 X115.823 Y98.544 E0.02938
G1 X115.199 Y98.998 E0.02938
G1 X114.552 Y99.418 E0.02938
G1 X113.883 Y99.804 E0.02939
G1 X113.250 Y100.127 E0.02708
G1 X112.131 Y100.611 E0.04643
G1 X111.405 Y100.868 E0.02932
G1 X110.665 Y101.088 E0.02939
G1 X109.915 Y101.268 E0.02938
G1 X109.156 Y101.408 E0.02938
G1 X108.391 Y101.509 E0.02938
G1 X107.623 Y101.570 E0.02933
G1 X106.463 Y101.585 E0.04418
G1 X105.693 Y101.544 E0.02933
G1 X104.926 Y101.464 E0.02938
